flaticon/stationery/watercolor.svg

<svg xmlns="http://www.w3.org/2000/svg" width="32" height="32" viewBox="0 0 24 24">
    <path d="M 0 11.476562 L 5.886719 11.476562 L 5.886719 12.523438 L 0 12.523438 L 0 24 L 24 24 L 24 12.523438 L 18.113281 12.523438 L 18.113281 11.476562 L 24 11.476562 L 24 0 L 0 0 Z M 22.980469 13.566406 L 22.980469 22.957031 L 1.019531 22.957031 L 1.019531 13.566406 Z M 6.910156 12.523438 L 6.910156 11.476562 L 17.089844 11.476562 L 17.089844 12.523438 Z M 1.019531 1.042969 L 22.980469 1.042969 L 22.980469 10.433594 L 1.019531 10.433594 Z M 1.019531 1.042969"/>
    <path d="M19.625 17.660156C20.621094 17.660156 21.433594 16.847656 21.433594 15.851562 21.433594 14.855469 20.621094 14.042969 19.625 14.042969 18.628906 14.042969 17.816406 14.855469 17.816406 15.851562 17.816406 16.847656 18.628906 17.660156 19.625 17.660156zM19.625 15.0625C20.058594 15.0625 20.414062 15.417969 20.414062 15.851562 20.414062 16.285156 20.058594 16.636719 19.625 16.636719 19.191406 16.636719 18.839844 16.285156 18.839844 15.851562 18.839844 15.417969 19.191406 15.0625 19.625 15.0625zM14.542969 17.660156C15.539062 17.660156 16.351562 16.847656 16.351562 15.851562 16.351562 14.855469 15.539062 14.042969 14.542969 14.042969 13.542969 14.042969 12.734375 14.855469 12.734375 15.851562 12.734375 16.847656 13.542969 17.660156 14.542969 17.660156zM14.542969 15.0625C14.976562 15.0625 15.328125 15.417969 15.328125 15.851562 15.328125 16.285156 14.976562 16.636719 14.542969 16.636719 14.109375 16.636719 13.753906 16.285156 13.753906 15.851562 13.753906 15.417969 14.109375 15.0625 14.542969 15.0625zM9.457031 17.660156C10.457031 17.660156 11.265625 16.847656 11.265625 15.851562 11.265625 14.855469 10.457031 14.042969 9.457031 14.042969 8.460938 14.042969 7.648438 14.855469 7.648438 15.851562 7.648438 16.847656 8.460938 17.660156 9.457031 17.660156zM9.457031 15.0625C9.890625 15.0625 10.246094 15.417969 10.246094 15.851562 10.246094 16.285156 9.890625 16.636719 9.457031 16.636719 9.023438 16.636719 8.671875 16.285156 8.671875 15.851562 8.671875 15.417969 9.023438 15.0625 9.457031 15.0625zM4.375 17.660156C5.371094 17.660156 6.183594 16.847656 6.183594 15.851562 6.183594 14.855469 5.371094 14.042969 4.375 14.042969 3.378906 14.042969 2.566406 14.855469 2.566406 15.851562 2.566406 16.847656 3.378906 17.660156 4.375 17.660156zM4.375 15.0625C4.808594 15.0625 5.160156 15.417969 5.160156 15.851562 5.160156 16.285156 4.808594 16.636719 4.375 16.636719 3.941406 16.636719 3.585938 16.285156 3.585938 15.851562 3.585938 15.417969 3.941406 15.0625 4.375 15.0625zM19.625 22.210938C20.621094 22.210938 21.433594 21.402344 21.433594 20.402344 21.433594 19.40625 20.621094 18.59375 19.625 18.59375 18.628906 18.59375 17.816406 19.40625 17.816406 20.402344 17.816406 21.402344 18.628906 22.210938 19.625 22.210938zM19.625 19.617188C20.058594 19.617188 20.414062 19.96875 20.414062 20.402344 20.414062 20.839844 20.058594 21.191406 19.625 21.191406 19.191406 21.191406 18.839844 20.839844 18.839844 20.402344 18.839844 19.96875 19.191406 19.617188 19.625 19.617188zM14.542969 22.210938C15.539062 22.210938 16.351562 21.402344 16.351562 20.402344 16.351562 19.40625 15.539062 18.59375 14.542969 18.59375 13.542969 18.59375 12.734375 19.40625 12.734375 20.402344 12.734375 21.402344 13.542969 22.210938 14.542969 22.210938zM14.542969 19.617188C14.976562 19.617188 15.328125 19.96875 15.328125 20.402344 15.328125 20.839844 14.976562 21.191406 14.542969 21.191406 14.109375 21.191406 13.753906 20.839844 13.753906 20.402344 13.753906 19.96875 14.109375 19.617188 14.542969 19.617188zM9.457031 22.210938C10.457031 22.210938 11.265625 21.402344 11.265625 20.402344 11.265625 19.40625 10.457031 18.59375 9.457031 18.59375 8.460938 18.59375 7.648438 19.40625 7.648438 20.402344 7.648438 21.402344 8.460938 22.210938 9.457031 22.210938zM9.457031 19.617188C9.890625 19.617188 10.246094 19.96875 10.246094 20.402344 10.246094 20.839844 9.890625 21.191406 9.457031 21.191406 9.023438 21.191406 8.671875 20.839844 8.671875 20.402344 8.671875 19.96875 9.023438 19.617188 9.457031 19.617188zM4.375 22.210938C5.371094 22.210938 6.183594 21.402344 6.183594 20.402344 6.183594 19.40625 5.371094 18.59375 4.375 18.59375 3.378906 18.59375 2.566406 19.40625 2.566406 20.402344 2.566406 21.402344 3.378906 22.210938 4.375 22.210938zM4.375 19.617188C4.808594 19.617188 5.160156 19.96875 5.160156 20.402344 5.160156 20.839844 4.808594 21.191406 4.375 21.191406 3.941406 21.191406 3.585938 20.839844 3.585938 20.402344 3.585938 19.96875 3.941406 19.617188 4.375 19.617188zM4.375 19.617188"/>
</svg>

<svg xmlns="http://www.w3.org/2000/svg" width="32" height="32" viewBox="0 0 24 24">
    <path d="M0 11.477h5.887v1.046H0V24h24V12.523h-5.887v-1.046H24V0H0zm22.98 2.09v9.39H1.02v-9.39zM6.91 12.522v-1.046h10.18v1.046zM1.02 1.043h21.96v9.39H1.02zm0 0"/>
    <path d="M19.625 17.66c.996 0 1.809-.812 1.809-1.808 0-.997-.813-1.809-1.809-1.809s-1.809.812-1.809 1.809c0 .996.813 1.808 1.809 1.808zm0-2.598c.434 0 .79.356.79.79a.789.789 0 0 1-.79.785.785.785 0 0 1-.785-.785c0-.434.351-.79.785-.79zm0 0M14.543 17.66c.996 0 1.809-.812 1.809-1.808a1.81 1.81 0 1 0-1.809 1.809zm0-2.598c.434 0 .785.356.785.79a.785.785 0 0 1-.785.785.789.789 0 0 1-.79-.785c0-.434.356-.79.79-.79zm0 0M9.457 17.66a1.81 1.81 0 0 0 0-3.617c-.996 0-1.809.812-1.809 1.809 0 .996.813 1.808 1.809 1.808zm0-2.598c.434 0 .79.356.79.79a.789.789 0 0 1-.79.785.785.785 0 0 1-.785-.785c0-.434.351-.79.785-.79zm0 0M4.375 17.66c.996 0 1.809-.812 1.809-1.808 0-.997-.813-1.809-1.809-1.809s-1.809.812-1.809 1.809c0 .996.813 1.808 1.809 1.808zm0-2.598c.434 0 .785.356.785.79a.785.785 0 0 1-.785.785.789.789 0 0 1-.79-.785c0-.434.356-.79.79-.79zm0 0M19.625 22.21a1.81 1.81 0 0 0 1.809-1.808c0-.996-.813-1.808-1.809-1.808s-1.809.812-1.809 1.808c0 1 .813 1.809 1.809 1.809zm0-2.593c.434 0 .79.352.79.785a.786.786 0 1 1-.79-.785zm0 0M14.543 22.21a1.81 1.81 0 0 0 1.809-1.808 1.81 1.81 0 1 0-1.809 1.809zm0-2.593a.786.786 0 1 1-.79.785c0-.433.356-.785.79-.785zm0 0M9.457 22.21c1 0 1.809-.808 1.809-1.808a1.81 1.81 0 0 0-1.809-1.808c-.996 0-1.809.812-1.809 1.808 0 1 .813 1.809 1.809 1.809zm0-2.593c.434 0 .79.352.79.785a.786.786 0 1 1-.79-.785zm0 0M4.375 22.21a1.81 1.81 0 0 0 1.809-1.808c0-.996-.813-1.808-1.809-1.808s-1.809.812-1.809 1.808c0 1 .813 1.809 1.809 1.809zm0-2.593a.786.786 0 1 1-.79.785c0-.433.356-.785.79-.785zm0 0"/>
</svg>
